X: 39000
T: Swallowtail Coat
R: reel
M: 4/4
K: Cmajor
ef|gece dBGB|cB{d}BA G2FE|GcBc Adcd|B2 G2 G2ef|
gece dBGB|cB{d}BA G2cB|ABcd ecdB|c2 e2d2 Bc||
defd BGAB|cBcd e2de|efgf fedc|B2 d2 d2ef|
gece dBGB|cB{d}BA G2cB|ABcd ecdB|c2 e2d2||

